X:1
T:Kitty Clover's -- Reel
R:reel
B:Ryan's Mammoth Collection
Z:Contributed by Ray Davies,  ray:davies99.freeserve.co.uk
M:C|
L:1/8
K:D
uA"^Segno"||:dcdA BEE2|BEE2 FDFA|dcdA BEE2|FAAG FDFA|
dcdA BEE2|BEE2 FDFA|dcdA BEE2|FAAG FDFA::
BABc d2fd|BABc dAFA|BABc d2eg|fdec dAFA|
BABc d2fd|BABc dAFA|BABc d2eg|faec dAFA"^Segno":|
